/* XPM */
static char * debian_xpm[] = {
"200 219 17 1",
" 	c None",
".	c #CCAAAA",
"+	c #CCBBBB",
"@	c #CC9999",
"#	c #BB8888",
"$	c #BB5555",
"%	c #BB7777",
"&	c #BB9999",
"*	c #AA4444",
"=	c #AA2222",
"-	c #AA0000",
";	c #AA3333",
">	c #990000",
",	c #BB6666",
"'	c #AA1111",
")	c #AA5555",
"!	c #BB4444",
"                                                                                                                                                                                                        ",
"                                                                                                                                                                                                        ",
"                                                                                                                                                                                                        ",
"                                                                                                                                                                                                        ",
"                                                                                                                                                                                                        ",
"                                                                                                                                                                                                        ",
"                                                                                                                                                                                                        ",
"                                                                                                                                                                                                        ",
"                                                                                                                                                                                                        ",
"                                                                                                                                                                                                        ",
"                                                                                                                                                                                                        ",
"                                                                                                                                                                                                        ",
"                                                                                                                                                                                                        ",
"                                                                                                                                                                                                        ",
"                                                                                                                                                                                                        ",
"                                                                                                                                                                                                        ",
"                                                                                                                                                                                                        ",
"                                                                                                                                                                                                        ",
"                                                                                                                                                                                                        ",
"                                                                                                                                                                                                        ",
"                                                                                                                                                                                                        ",
"                                                                                                                                                                                                        ",
"                                                                                                                                                                                                        ",
"                                                                                                                                                                                                        ",
"                                                                                                                                                                                                        ",
"                                                                                                                                                                                                        ",
"                                                                                                                                                                                                        ",
"                                                                                                                                                                                                        ",
"                                                                                                      ......+                                                                                           ",
"                                                                                              .@#.   ..                                                                                                 ",
"                                                                                       .$%&%*=-;&     .##@                                                                                              ",
"                                                                                     #*>>>>>>>=$**$,#&@.#.     #,.                                                                                      ",
"                                                                                  .%=>>>>>>>>>>>>>>>*@.@#,;='=$$>>;,.                                                                                   ",
"                                                                                @$'>>>>>>>>>>>>>>>>>>>>>>>>>>>>>>>>>>=$&                                                                                ",
"                                                                              &;>>>>>>>>>>>>>>>>>>>>>>>>>>>>>>>>>>>>>>>>'$@                                                                             ",
"                                                                            #=>>>>>>>>>>>>>>>>>>>>>>>>>>>>>>>>>>>>>>>>>>>>>;#                                                                           ",
"                                                                          #=>>>>>>>>>>>>>>>>>>>>>>>>>>>>>>>>>>>>>>>>>>>>>>>>>=#     .                                                                   ",
"                                                                        #=>>>>>>>>>>>>>>>>>>>>>>>>>>>>>>>>>>>>>>>>>>>>>>>>>>>>>=%,;'>';#                                                                ",
"                                                                      @;>>>>>>>>>>>>>>>>>>>>>>>>>>>>>>>>>>>>>>>>>>>>>>>>>>>>>>>>>>>>>>>'.                                                               ",
"                                                                     $>>>>>>>>>>>>>>>>>>>>>>>>>>>>>>>>>>>>>>>>>>>>>>>>>>>>>>>>>>>>>>>>>>* .+                                                            ",
"                                                                   @=>>>>>>>>>>>>>>>>>>>>>>>>>>>>>>>>>>>>>>>>>>>>>>>>>>>>>>>>>>>>>>>>>>>>;.,%                                                           ",
"                                                                  ,>>>>>>>>>>>>>>>>>>>>>>>>>>>>>>>>>>>>>>>>>>>>>>>>>>>>>>>>>>>>>>>>>>>>>>>-,*;.                                                         ",
"                                                               % *>>>>>>>>>>>>>>>>>>>>>>>>>>>>>>>>>>>>>>>>>>>>>>>>>>>>>>>>>>>>>>>>>>>>>>>>>>->'%                                                        ",
"                                                              ,>=>>>>>>>>>>>>>>>>>>>>>>>>>>>>>>>>>>>>>>>>>>>>>>>>>>>>>>>>>>>>>>>>>>>>>>>>>>>>>>>*.                                                      ",
"                                                             $>>>>>>>>>>>>>>>>>>>>>>>>>>>>>>>>>>'->>'=;;;;;;;='->>>>>>>>>>>>>>>>>>>>>>>>>>>>>>>>>=.                                                     ",
"                                                            $>>>>>>>>>>>>>>>>>>>>>>>>>>>>>>'*%&..#&.           ..#%*=>>>>>>>>>>>>>>>>>>>>>>>>>>>>>'&                                                    ",
"                                                           *>>>>>>>>>>>>>>>>>>>>>>>>>>>>>;#   .+                     .#$'>>>>>>>>>>>>>>>>>>>>>>>>>>>%                                                   ",
"                                                         +;>>>>>>>>>>>>>>>>>>>>>>>>>>>>=&                                @$'>>>>>>>>>>>>>>>>>>>>>>>>>%                                                  ",
"                                                        .=>>>>>>>>>>>>>>>>>>>>>>>>>>>'%                                     #=>>>>>>>>>>>>>>>>>>>>>>>>,                                                 ",
"                                                       @=>>>>>>>>>>>>>>>>>>>>>>>>>>',.                                        #=>>>>>>>>>>>>>>>>>>>>>>>,                                                ",
"                                                      @'>>>>>>>>>>>>>>>>>>>>>>>>'$&@                                            ,>>>>>>>>>>>>>>>>>>>>>>>%                                               ",
"                                                     @'>>>>>>>>>>>>>>>>>>>>>>>>>=;;#                                             @=>>>>>>>>>>>>>>>>>>>>>>#                                              ",
"                                                    .'>>>>>>>>>>>>>>>>>>>>>>=$,#@.                                                 *>>>>>>>>>>>>>>>>>>>>>'@                                             ",
"                                                   .=>>>>>>>>>>>>>>>>>>>>>;#                                                        ,>>>>>>>>>>>>>>>>>>>>>=.                                            ",
"                                                   ;>>>>>>>>>>>>>>>>>>>>'%                                                           #'>>>>>>>>>>>>>>>>>>>>;                                            ",
"                                                  %>>>>>>>>>>>>>>>>>>>>'@                                                             &'>>>>>>>>>>>>>>>>>>>>,                                           ",
"                                                 +'>>>>>>>>>>>>>>>>>>>=.                                                               &'>>>>>>>>>>>>>>>>>>>>&                                          ",
"                                                 %>>>>>>>>>>>>>>>>>>>'%$                                                                &'>>>>>>>>>>>>>>>>>>>=                                          ",
"                                                %'>>>>>>>>>>>>>>>>>>>=;.                                                                 #>>>>>>>>>>>>>>>>>>>>,                                         ",
"                                               .'>>>>>>>>>>>>>>>>>',.                                                                     %>>>>>>>>>>>>>>>>>>>-.                                        ",
"                                               ,>>>>>>>>>>>>>>>>>,                                                                         $>>>>>>>>>>>>>>>>>>>*                                        ",
"                                              +'>>>>>>>>>>>>>>>=@                                                                           ;>>>>>>>>>>>>>>>>>>>&                                       ",
"                                              %>>>>>>>>>>>>>>>$                                                                             .'>>>>>>>>>>>>>>>>>>;                                       ",
"                                              =>>>>>>>>>>>>>>%                                                                               #>>>>>>>>>>>>>>>>>>>&                                      ",
"                                     %'      #>>>>>>>>>>>>>'#                                                                                 $>>>>>>>>>>>>>>>>>>*                                      ",
"                                     $;      *>>>>>>>>>>>>'@                                                                                  +'>>>>>>>>>>>>>>>>>>.                                     ",
"                                     =#     .>>>>>>>>>>>>'@                                                                                    #>>>>>>>>>>>>>>>>>>,                                     ",
"                                    .&      *>>>>>>>>>>>'@                                                                                      ;>>>>>>>>>>>>>=>>-;                                     ",
"                                          .$>>>>>>>>>>>'@                                                                                       @>>>>>>>>>>'#%.$>'@.                                    ",
"                                         %>>>>>>>>>>>>'@                                                                                         *>>>>>>>>>;   .'>.+                                    ",
"                                         =>>>>>>>>>>>-#                                                                                          &>>>>>>>>>=    ,>&                                     ",
"                                        #>>>>>>>>>>>>#                                                                                            ;>>>>>>>>>.   .'&                                     ",
"                                        ;>>>>>>>>>>>,                                                                                             #>>>>>>>>>$#.  $&                                     ",
"                                       &>>>>>>>>>>>*                                                      +.@@@.                                   '>>>>>>>>>>$  .,                                     ",
"                                       *>>>>>>>>>>=                                                   &,;'>>>>>>';,&                               $>>>>>>>>>>-   $                                     ",
"                                      .->>>>>>>>>'@                                                .,'>>>>>>>>>>>>>>',.                            &>>>>>>>>>>>.  #.                                    ",
"                                  @   ,>>>>>>>>>>%                                               .$>>>>>>>>>>>>>>>>>>>-$.                           '>>>>>>>>>>&   %                                    ",
"                                 %#   =>>>>>>>>>'.                                              %'>>>>>>>';,#&@+.&&%$=>>'#                          *>>>>>>>>>>,   ,                                    ",
"                                 ;.  &>>>>>>>>>>>=                                            .*>>>>>>'*&             .%=>$                         %>>>>>>>>>>;   #.                                   ",
"                                 ;   $>>>>>>>>>>>%                                           .=>>>>>'%.                  @;;.                       &>>>>>>>>>*'    #                                   ",
"                                 ,   '>>>>>>>>>>'.                                          .=>>>>-,                       #;.                      +>>>>>>>>>%;.   &                                   ",
"                                 .  #>>>>>>>>>>>,                                           ;>>>>;.                          ,.                      '>>>>>>>>;.@   @                                   ",
"                                    *>>>>>>>>>>'.                                          *>>>>$                             @                      =>>>>>>>>>.    .                                   ",
"                                    >>>>>>>>>>>,                                          &>>>>%                                                     *>>>>>>>>>,     .                                  ",
"                                   #>>>>>>>>>>'.                                          =>>>%                                                      @>>>>>>>>>'.                                       ",
"                                   *>>>>>>>>>>%                                         .;>>>,                                                       &>>>>>>>>>>%                                       ",
"                                   '>>>>>>>>>=                                          ;>>>*                                                        &>>>>>>>>>=                                        ",
"                                  &>>>>>>>>>>%                                         %>>>'.                                                        &>>>>>>>>>;                                        ",
"                                  $>>>>>>>>>'                                          '>>>#                                                         &>>>>>>>>>=                                        ",
"                                  =>>>>>>>>>$                                         %>>>;                                                          &>>>>>>>>>'                                        ",
"                                  '>>>>>>>>>&                                         =>>>&                                                          +>>>>>>>>>>#.                                      ",
"                                  *>>>>>>>>>+                                        @>>>;                                                           +>>>>>>>>>>-;                                      ",
"                                  ,>>>>>>>>'                                         $>>>#                                                           +>>>>>>>>>>>,                                      ",
"                                  ,>>>>>>>>=                                         '>>'.                                                           +>>>>>>>>>>>.                                      ",
"                                  ,>>>>>>>>;                                        #>>>*                                          %.                +>>>>>>>>>>;                                       ",
"                                  ,>>>>>>>>*                                        =>>>%                                         .-.                .>>>>>>>>>>%                                       ",
"                                  ,>>>>>>>>$                                       #>>>>.                                         .>.                &>>>>>>>>>>.                                       ",
"                                  ,>>>>>>>>,                                       %>>>'                                           *.                #>>>>>>>>>'                                        ",
"                                  ,>>>>>>>>%                                       $>>>=                                           .                 %>>>>>>>>*;                                        ",
"                                  ,>>>>>>>>@                                       *>>>;                                                             )>>>>>>>>%,                                        ",
"                                  *>>>>>>>>.                                       *>>>*                                                             ,>>>>>>>=##                                        ",
"                                  *>>>>>>>>                                        ;>>>*                                                            +@>>>>>>>%+.                                        ",
"                                  *>>>>>>>'                                        ;>>>*.                                                           +.>>>>>>>%.                                         ",
"                                  *>>>>>>>=                                        ;>>>',                                                            #>>>>>>>#@  @                                      ",
"                                  *>>>>>>>;                                        ;>>>>*                                                            $>>>>>>>.@  @                                      ",
"                                  *>>>>>>>*                                        *>>>>*                                      + .                   =>>>>>>=.. ..                                      ",
"                                  *>>>>>>>$                                        $>>>>=                                     .# @                  &>>>>>>>,.  &                                       ",
"                                  *>>>>>>>,                                        %>>>>>.                                    , @.                  $>>>>>>>.+  &                                       ",
"                                  ,>>>>>>>,                                        #>>>>>@                                   ## ,                  +'>>>>>>*    @                                       ",
"                                  ,>>>>>>>%                                        +>>>>>,                                   , %&                  %>>>>>>>&   ..                                       ",
"                                  )>>>>>>>%                                         =>>>>=                                   %;*                 .$>>>>>>>;    @                                        ",
"                                  *>>>>>>>%                                         $>>>>>.                                   #.                .->>>>>>>>&    @                                        ",
"                                  *>>>>>>>%                                         &>>>>>,                                                     ,>>>>>>>>;     .                                        ",
"                                  *>>>>>>>%                                          '>>>>'.                                                    ;>>>>>>>>%    @                                         ",
"                                  *>>>>>>>,                                          ,>>>>>,                                                    )>>>>>'*>.    .                                         ",
"                                  *>>>>>>>$                                         +.'>>>>'.                  %$$,,$;%                         ;>>>>>% ;    +.                                         ",
"                                  ,>>>>>>>*                                         ..,>>>>>$                  .$=>>>#                         &>>>>>=  .    .                                          ",
"                                  ,>>>>>>>=                                          %+'>>>>>&                    .#&                         #->>>>>#       .                                          ",
"                                  %>>>>>>>>.                                         #&#>>>>>=.                                              %>>>>>>>.      +                                           ",
"                                  #>>>>>>>>%                                      #   $ *>>>>>*                                             ,>>>>>>>>@                                                  ",
"                                  @>>>>>>>>=                                      '.  &..=>>>>>,                                           $>>>>>>>;!.                                                  ",
"                                  .>>>>>>>>>,                                     =*   . .'>>>>>,                                        .;>>>>>>>* %                                                   ",
"                                   >>>>>>>>>,                                     @'&+%   &'>>>>>,                                      .=>>>>>>>*  +                                                   ",
"                                   =>>>>>>>>,                                      %= #$   #>>>>>>$                                  # #'>>>>>>>*                                                       ",
"                                   *>>>>>>>>#                                       ;% *%   #'>>>>>;.                               ,.$>>>>>>>>$                                                        ",
"                                   ,>>>>>>>>&                                       .=. =#.. &'>>>>>'#                            .=='>>>>>>>>,                                                         ",
"                                   %>>>>>>>>,                                        &$ .=&%. @'>>>>>>*.                         @=>>>>>>>>>'#                                                          ",
"                                   .>>>>>>>>'.                                        #. .=@$. .=>>>>>>'$.                     .,->>>>>>>>>;.                                                           ",
"                                    ->>>>>>>>,                                            .;#;.  *>>>>>>>'$&               @%%*->>>>>>>>>'%                                                             ",
"                                    ;>>>>>>>>%                                             .;%=#  ,>>>>>>>>>'$#.        @%;>>>>>>>>>>>>>;@                                                              ",
"                                    ,>>>>>>>>%                                               $*>$  &'>>>>>>>>>>>'=****='>>>>>>>>>>>>>>;&                                                                ",
"                                    &>>>>>>>>;                                                %'>=# .>>>>>>>>>>>>>>>>>>>>>>>>>>>>>>>;#                                                                  ",
"                                     ->>>>>>>>.                                                .;>>;#%,;>>>>>>>>>>>>>>>>>>>>>>>>>'$@                                                                    ",
"                                     ;>>>>>>>>,                                                  #=>>'# .%*=>>>>>>>>>>>>>>>>>>=$&                                                                       ",
"                                     %>>>>>>>>'.                                                   ,'>>$    .&,*;=='-''==;*,&.                                                                          ",
"                                     .>>>>>>>>>$                                                     %'>=#          .                                                                                   ",
"                                      =>>>>>>>>>$&.                                                    #;-=$&+                                                                                          ",
"                                      ,>>>>>>>>>>>>*.                                                    .%;'>=*,%&&@@@@@.                                                                              ",
"                                      .>>>>>>>>>>>>>;                                                        &%$;='''';$#                                                                               ",
"                                       =>>>>>>>>>>>>>%                                                                                                                                                  ",
"                                       %>>>>>>>>>>>>>'.                                                                                                                                                 ",
"                                       .'>>>>>>>>>>>>>,                                                                                                                                                 ",
"                                        *>>>>>>>>>>>-''.                                                                                                                                                ",
"                                        &>>>>>>>>>>>>#',                                                                                                                                                ",
"                                         ;>>>>>>>>>>>,.%                                                                                                                                                ",
"                                         #>>>>>>>>>>>'                                                                                                                                                  ",
"                                          =>>>>>>>>>>>%                                                                                                                                                 ",
"                                          %>>>>>>>>>>>'.                                                                                                                                                ",
"                                           '>>>>>>>>>>>*                                                                                                                                                ",
"                                           %>>>>>>>>>>>>#                                                                                                                                               ",
"                                            =>>>>>>>>>>>'                                                                                                                                               ",
"                                            %>>>>>>>>>>>%                                                                                                                                               ",
"                                             =>>>>>>>>>>$                                                                                                                                               ",
"                                             &>>>>>>>>>>>#                                                                                                                                              ",
"                                              *>>>>>>>>>>>%                                                                                                                                             ",
"                                              .'>>>>>>>>>>%.                                                                                                                                            ",
"                                               %>>>>>>>>>>$                                                                                                                                             ",
"                                                ;>>>>>>>>>'.                                                                                                                                            ",
"                                                .->>>>>>>>>;                                                                                                                                            ",
"                                                 %>>>>>>>>>>%                                                                                                                                           ",
"                                                  ;>>>>>>>>>'.                                                                                                                                          ",
"                                                  .'>>>>>>>>>;                                                                                                                                          ",
"                                                   #>>>>>>>>>>$                                                                                                                                         ",
"                                                    ,>>>>>>>>>>#                                                                                                                                        ",
"                                                     ;>>>>>>>>>'..                                                                                                                                      ",
"                                                     .=>>>>>>>>>;*                                                                                                                                      ",
"                                                      @'>>>>>>>>>>@                                                                                                                                     ",
"                                                       #>>>>>>>>>>$                                                                                                                                     ",
"                                                        %>>>>>>>>>-@                                                                                                                                    ",
"                                                         ,>>>>>>>>>;                                                                                                                                    ",
"                                                          $>>>>>>>>>,                                                                                                                                   ",
"                                                           $>>>>>>>>>#                                                                                                                                  ",
"                                                            $>>>>>>>>'$*#                                                                                                                               ",
"                                                             $>>>>>>>>>>'.                                                                                                                              ",
"                                                              ,>>>>>>>>>>=.                                                                                                                             ",
"                                                               %>>>>>>>>>>=.                                                                                                                            ",
"                                                                #'>>>>>>>>>'&                                                                                                                           ",
"                                                                 @'>>>>>>>>>>$@                                                                                                                         ",
"                                                                  .;>>>>>>>>>>*                                                                                                                         ",
"                                                                    $>>>>>>>>'+                                                                                                                         ",
"                                                                     #'>>>>>>>',.                                                                                                                       ",
"                                                                      .;>>>>>>>>'#                                                                                                                      ",
"                                                                        %'>>>>>>>>$. ..                                                                                                                 ",
"                                                                         .;>>>>>>>>',.*.                                                                                                                ",
"                                                                           #'>>>>>>>>>''.                                                                                                               ",
"                                                                             ,'>>>>>>>>>=.                                                                                                              ",
"                                                                              .$>>>>>>>>>=.                                                                                                             ",
"                                                                                .$->>>>>>>=@                                                                                                            ",
"                                                                                  .,'>>>>>>-,                                                                                                           ",
"                                                                                     #;>>>>>>=#                                                                                                         ",
"                                                                                       .%;>>>>>')#.                                                                                                     ",
"                                                                                          .%*'>>>>-=)%#.                                                                                                ",
"                                                                                              @%,*;=>>>>'*,&                                                                                            ",
"                                                                                                      +....@.                                                                                           ",
"                                                                                                                                                                                                        ",
"                                                                                                                                                                                                        ",
"                                                                                                                                                                                                        ",
"                                                                                                                                                                                                        ",
"                                                                                                                                                                                                        ",
"                                                                                                                                                                                                        ",
"                                                                                                                                                                                                        ",
"                                                                                                                                                                                                        ",
"                                                                                                                                                                                                        ",
"                                                                                                                                                                                                        ",
"                                                                                                                                                                                                        ",
"                                                                                                                                                                                                        ",
"                                                                                                                                                                                                        ",
"                                                                                                                                                                                                        ",
"                                                                                                                                                                                                        ",
"                                                                                                                                                                                                        ",
"                                                                                                                                                                                                        ",
"                                                                                                                                                                                                        ",
"                                                                                                                                                                                                        ",
"                                                                                                                                                                                                        ",
"                                                                                                                                                                                                        ",
"                                                                                                                                                                                                        ",
"                                                                                                                                                                                                        ",
"                                                                                                                                                                                                        ",
"                                                                                                                                                                                                        "};
